src/css/fonts/SVGs/iota_icons/iota_20_icon.svg

<svg width="48" height="48" viewBox="0 0 48 48" fill="none" xmlns="http://www.w3.org/2000/svg">
<path d="M16.1473 26.7899H21.9358V25.1238H18.99V25.0788L19.697 24.4784C21.4166 23.0188 21.8548 22.2608 21.8548 21.3715C21.8548 19.9381 20.7022 19 18.8943 19C17.1378 19 15.9963 19.9944 16 21.6116H17.9442C17.9406 20.9662 18.3272 20.606 18.8943 20.606C19.4576 20.606 19.859 20.9625 19.859 21.5516C19.859 22.0957 19.5166 22.4484 18.9605 22.9175L16.1473 25.2889V26.7899Z" fill="black"/>
<path d="M23.7851 26.9099C24.3263 26.9099 24.8087 26.4447 24.8161 25.8593C24.8087 25.2889 24.3263 24.8236 23.7851 24.8236C23.2143 24.8236 22.7467 25.2889 22.754 25.8593C22.7467 26.4447 23.2143 26.9099 23.7851 26.9099Z" fill="black"/>
<path fill-rule="evenodd" clip-rule="evenodd" d="M32 22.9625C31.9963 25.5066 30.7223 27.0038 28.6713 27C26.6166 26.9962 25.3351 25.4953 25.3425 22.9625C25.3499 20.4259 26.6166 19 28.6713 19C30.7223 19 32.0037 20.4334 32 22.9625ZM27.4635 22.9625C27.4561 24.5797 27.9643 25.3039 28.6713 25.3039C29.3782 25.3039 29.8827 24.5797 29.879 22.9625C29.8753 21.3827 29.3782 20.6811 28.6713 20.6811C27.9643 20.6811 27.4708 21.3827 27.4635 22.9625Z" fill="black"/>
<path fill-rule="evenodd" clip-rule="evenodd" d="M35.6848 33.1524C37.1185 32.3481 38 30.872 38 29.2758V18.7242C38 17.128 37.1185 15.6519 35.6848 14.8476L26.3515 9.6114C24.8984 8.7962 23.1016 8.7962 21.6485 9.6114L12.3152 14.8476C10.8815 15.6519 10 17.128 10 18.7242V29.2758C10 30.872 10.8815 32.3481 12.3152 33.1524L21.6485 38.3886C23.1016 39.2038 24.8984 39.2038 26.3515 38.3886L35.6848 33.1524ZM36 18.7242V29.2758C36 30.1222 35.5324 30.9446 34.7063 31.4081L25.3729 36.6443C24.5277 37.1186 23.4723 37.1186 22.6271 36.6443L13.2937 31.4081C12.4676 30.9446 12 30.1222 12 29.2758V18.7242C12 17.8778 12.4676 17.0554 13.2937 16.5919L22.6271 11.3557C23.4723 10.8814 24.5277 10.8814 25.3729 11.3557L34.7063 16.5919C35.5324 17.0554 36 17.8778 36 18.7242Z" fill="black"/>
</svg>

<svg xmlns="http://www.w3.org/2000/svg" viewBox="0 0 48 48">
  <path d="M16.147 26.79h5.789v-1.666H18.99v-.045l.707-.6c1.72-1.46 2.158-2.218 2.158-3.107 0-1.434-1.153-2.372-2.96-2.372-1.757 0-2.899.994-2.895 2.612h1.944c-.003-.646.383-1.006.95-1.006.564 0 .965.356.965.946 0 .544-.342.896-.899 1.366l-2.813 2.37v1.502Zm7.638.12c.541 0 1.024-.465 1.031-1.05-.007-.571-.49-1.036-1.03-1.036-.572 0-1.04.465-1.032 1.035-.007.586.46 1.05 1.031 1.05Z"/>
  <path fill-rule="evenodd" clip-rule="evenodd" d="M32 22.962c-.004 2.545-1.278 4.042-3.329 4.038-2.054-.004-3.336-1.505-3.328-4.038C25.35 20.426 26.617 19 28.67 19c2.051 0 3.333 1.433 3.329 3.962Zm-4.537 0c-.007 1.618.501 2.342 1.208 2.342s1.212-.724 1.208-2.341c-.004-1.58-.5-2.282-1.208-2.282-.707 0-1.2.702-1.207 2.281Z"/>
  <path fill-rule="evenodd" clip-rule="evenodd" d="M35.685 33.152c1.433-.804 2.315-2.28 2.315-3.876V18.724c0-1.596-.882-3.072-2.315-3.876L26.35 9.61a4.828 4.828 0 0 0-4.703 0l-9.333 5.237c-1.433.804-2.315 2.28-2.315 3.876v10.552c0 1.596.882 3.072 2.315 3.876l9.333 5.237a4.828 4.828 0 0 0 4.704 0l9.333-5.237ZM36 18.724v10.552c0 .846-.468 1.669-1.294 2.132l-9.333 5.236c-.845.475-1.9.475-2.746 0l-9.333-5.236C12.468 30.945 12 30.122 12 29.276V18.724c0-.846.468-1.669 1.294-2.132l9.333-5.236a2.827 2.827 0 0 1 2.746 0l9.333 5.236c.826.463 1.294 1.286 1.294 2.132Z"/>
</svg>
